X: 12
T: 12. Puer natus in Bethlehem
N: Derived from chor012.krn
C: Johann Sebastian Bach
%%abc-version 2.0
%%abcx-abcm2ps-target-version 5.9.1 (29 Sep 2008)
%%abc-creator hum2abc beta
%%abcx-conversion-date 2019/03/11 17:28:17
%%abc-edited-by Craig Stuart Sapp
%%humdrum-veritas 614810844
%%humdrum-veritas-data 775376278
%%
%%barnumbers 0
L: 1/4
M: 3/4
%%staves [1 2 3 4]
V: 1 clef=treble
V: 2 clef=treble
V: 3 clef=treble-8
V: 4 clef=bass
K: C
[V:1] A [I:setbarnb 1]| 
[V:2] E | 
[V:3] c | 
[V:4] A,, | 
[V:1] A2A | 
[V:2] E2A | 
[V:3] c2d | 
[V:4] A,G,^F, | 
[V:1] B2B | 
[V:2] G2G | 
[V:3] d2d | 
[V:4] G,D,=F, | 
[V:1] cBA | 
[V:2] G2F | 
[V:3] cec | 
[V:4] E,C,F, | 
[V:1] !fermata!G3 | 
[V:2] !fermata!E3 | 
[V:3] !fermata!c3 | 
[V:4] !fermata!C,3 | 
[V:1] c2d | 
[V:2] G2^G | 
[V:3] e3- | 
[V:4] C,CB, | 
[V:1] c2B | 
[V:2] A2=G | 
[V:3] edd | 
[V:4] A,^F,G, | 
[V:1] !fermata!c2c | 
[V:2] !fermata!G2G | 
[V:3] !fermata!e2e | 
[V:4] !fermata!C,2C | 
[V:1] c2c | 
[V:2] A2^F | 
[V:3] edd | 
[V:4] A,^F,D, | 
[V:1] B2A | 
[V:2] G2G- | 
[V:3] dee | 
[V:4] G,E,^C, | 
[V:1] AB^G | 
[V:2] G^FE | 
[V:3] dBB | 
[V:4] D,^D,E, | 
[V:1] !fermata!A2A | 
[V:2] !fermata!E2D | 
[V:3] !fermata!c2A | 
[V:4] !fermata!A,,2F,- | 
[V:1] =G2A | 
[V:2] DED | 
[V:3] BcA | 
[V:4] F,E,^F, | 
[V:1] B2B | 
[V:2] D2=F | 
[V:3] GBd | 
[V:4] G,^F,^G, | 
[V:1] c2B | 
[V:2] EF=G- | 
[V:3] cd2 | 
[V:4] A,D,E, | 
[V:1] A2^G | 
[V:2] G^FE | 
[V:3] c2B | 
[V:4] F,^D,E, | 
[V:1] !fermata!A2 |]  
[V:2] !fermata!E2 |]  
[V:3] !fermata!^c2 |]  
[V:4] !fermata!A,,2 |]  



